projects/plugins/boost/.w.org-assets/icon.svg

<svg fill="none" height="128" viewBox="0 0 128 128" width="128" xmlns="http://www.w3.org/2000/svg" xmlns:xlink="http://www.w3.org/1999/xlink"><clipPath id="a"><path d="m0 0h128v128h-128z"/></clipPath><g clip-path="url(#a)"><rect fill="#2c3338" height="103.619" rx="12.1905" width="103.619" x="12.1904" y="12.1904"/><path clip-rule="evenodd" d="m42.6665 48.3453 16.0778 17.6861-16.0778 17.686 2.8946 2.6314 17.2739-19.0017 1.1961-1.3157-1.1961-1.3157-17.2739-19.0018zm20.7267 0 16.0778 17.6861-16.0778 17.686 2.8946 2.6314 17.2739-19.0017 1.1961-1.3157-1.1961-1.3157-17.2739-19.0018z" fill="#fff" fill-rule="evenodd"/><path d="m104.671 46.7302c12.904 0 23.365-10.4609 23.365-23.3651s-10.461-23.3651-23.365-23.3651c-12.9044 0-23.3653 10.4609-23.3653 23.3651s10.4609 23.3651 23.3653 23.3651z" fill="#069e08"/><g fill="#fff"><path d="m105.83 19.4412v22.6516l11.682-22.6516z"/><path d="m103.467 27.2443v-22.60709l-11.6379 22.60709z"/></g></g></svg>

<svg width="128" height="128" viewBox="0 0 128 128" fill="none" xmlns="http://www.w3.org/2000/svg">
<g clip-path="url(#clip0_2891_12373)">
<rect x="12.1904" y="12.1904" width="103.619" height="103.619" rx="12.1905" fill="#2C3338"/>
<g style="mix-blend-mode:screen">
<path fill-rule="evenodd" clip-rule="evenodd" d="M42.6665 48.3453L58.7443 66.0314L42.6665 83.7174L45.5611 86.3488L62.835 67.3471L64.0311 66.0314L62.835 64.7157L45.5611 45.7139L42.6665 48.3453ZM63.3932 48.3453L79.471 66.0314L63.3932 83.7174L66.2878 86.3488L83.5617 67.3471L84.7578 66.0314L83.5617 64.7157L66.2878 45.7139L63.3932 48.3453Z" fill="white"/>
</g>
<path d="M104.671 46.7302C117.575 46.7302 128.036 36.2693 128.036 23.3651C128.036 10.4609 117.575 0 104.671 0C91.7666 0 81.3057 10.4609 81.3057 23.3651C81.3057 36.2693 91.7666 46.7302 104.671 46.7302Z" fill="#069E08"/>
<path d="M105.83 19.4412V42.0928L117.512 19.4412H105.83Z" fill="white"/>
<path d="M103.467 27.2443V4.63721L91.8291 27.2443H103.467Z" fill="white"/>
</g>
<defs>
<clipPath id="clip0_2891_12373">
<rect width="128" height="128" fill="white"/>
</clipPath>
</defs>
</svg>
